resources/svg/book-o.svg

<svg width="15" height="15" viewBox="0 0 15 15" fill="none" xmlns="http://www.w3.org/2000/svg">
<path d="M1.5 0.5V0C1.22386 0 1 0.223858 1 0.5H1.5ZM1.5 13.5H1C1 13.7761 1.22386 14 1.5 14V13.5ZM4 0V15H5V0H4ZM1.5 1H11.5V0H1.5V1ZM13 2.5V11.5H14V2.5H13ZM11.5 13H1.5V14H11.5V13ZM2 13.5V0.5H1V13.5H2ZM13 11.5C13 12.3284 12.3284 13 11.5 13V14C12.8807 14 14 12.8807 14 11.5H13ZM11.5 1C12.3284 1 13 1.67157 13 2.5H14C14 1.11929 12.8807 0 11.5 0V1ZM7 5H11V4H7V5Z" fill="black"/>
</svg>

<svg viewBox="0 0 15 15" fill="none" xmlns="http://www.w3.org/2000/svg" fill="currentColor"><path d="M1.5.5V0a.5.5 0 00-.5.5h.5zm0 13H1a.5.5 0 00.5.5v-.5zM4 0v15h1V0H4zM1.5 1h10V0h-10v1zM13 2.5v9h1v-9h-1zM11.5 13h-10v1h10v-1zm-9.5.5V.5H1v13h1zm11-2a1.5 1.5 0 01-1.5 1.5v1a2.5 2.5 0 002.5-2.5h-1zM11.5 1A1.5 1.5 0 0113 2.5h1A2.5 2.5 0 0011.5 0v1zM7 5h4V4H7v1z" fill="currentColor"/></svg>
